;FLAVOR:Marlin

T0
M82 ;absolute extrusion mode
G21 ;metric values
G28 ;home all
G90 ;absolute positioning
M107 ;start with the fan off
G1 F2400 Z15.0 ;raise the nozzle 15mm
M109 S205.0 ;Set Extruder Temperature and Wait
M190 S60.0; Wait for bed temperature to reach target temp
T0 ;Switch to Extruder 1
G1 F3000 X5 Y10 Z0.2 ;move to prime start position
G92 E0 ;reset extrusion distance
G1 F600 X160 E15 ;prime nozzle in a line
G1 F5000 X180 ;quick wipe
G92 E0 ;reset extrusion distance
G92 E0

T0 ;switch to extruder 1
G92 E0 ;reset extruder distance
G1 F2000 E93 ;load filament
G92 E0 ;reset extruder distance
M104 S205.0
G92 E0
;LAYER_COUNT:297
;LAYER:0
M10
G1 X504.38 Y-749.99 Z350.00
G1 X504.38 Y-749.99 Z-50.00
G1 X462.37 Y-776.44
G1 X458.10 Y-769.68
G1 X516.67 Y-732.80
G1 X510.28 Y-701.24
G1 X518.12 Y-699.66
G1 X524.48 Y-731.10
G1 X565.97 Y-736.31
G1 X583.54 Y-720.47
G1 X593.60 Y-651.24
G1 X562.12 Y-624.21
G1 X514.34 Y-642.04
G1 X509.79 Y-658.49
G1 X516.53 Y-691.82
G1 X508.69 Y-693.40
G1 X501.98 Y-660.24
G1 X492.61 Y-650.18
G1 X425.73 Y-667.49
G1 X423.72 Y-659.75
G1 X491.68 Y-642.16
G1 X494.55 Y-638.78
G1 X480.80 Y-625.89
G1 X486.27 Y-620.05
G1 X501.74 Y-634.55
G1 X510.40 Y-634.97
G1 X559.05 Y-616.82
G1 X560.42 Y-584.37
G1 X556.71 Y-575.38
G1 X564.11 Y-572.33
G1 X565.72 Y-576.22
G1 X579.89 Y-560.26
G1 X585.87 Y-565.57
G1 X568.39 Y-585.25
G1 X567.01 Y-617.87
G1 X599.02 Y-645.35
G1 X622.09 Y-640.99
G1 X623.57 Y-648.85
G1 X601.42 Y-653.04
G1 X591.76 Y-719.52
G1 X687.03 Y-744.54
G1 X660.60 Y-641.85
G1 X631.43 Y-647.36
G1 X629.95 Y-639.50
G1 X660.87 Y-633.66
G1 X669.95 Y-646.07
G1 X695.76 Y-746.38
G1 X703.37 Y-742.57
G1 X710.18 Y-687.66
G1 X718.12 Y-688.64
G1 X711.60 Y-741.17
G1 X763.45 Y-740.98
G1 X786.42 Y-731.14
G1 X796.46 Y-707.62
G1 X779.26 Y-653.25
G1 X756.11 Y-636.78
G1 X723.99 Y-641.32
G1 X719.11 Y-680.70
G1 X711.17 Y-679.72
G1 X716.03 Y-640.47
G1 X684.35 Y-629.12
G1 X672.10 Y-636.66
G1 X667.91 Y-629.84
G1 X679.64 Y-622.63
G1 X673.12 Y-561.16
G1 X681.08 Y-560.32
G1 X687.60 Y-621.79
G1 X720.82 Y-633.69
G1 X755.11 Y-628.84
G1 X789.34 Y-590.11
G1 X766.34 Y-529.41
G1 X684.76 Y-523.41
G1 X677.92 Y-530.54
G1 X680.23 Y-552.36
G1 X672.28 Y-553.20
G1 X670.14 Y-533.13
G1 X633.71 Y-533.29
G1 X633.68 Y-525.29
G1 X672.03 Y-525.12
G1 X679.20 Y-517.65
G1 X679.23 Y-515.60
G1 X672.22 Y-502.14
G1 X679.31 Y-498.45
G1 X680.76 Y-501.23
G1 X681.52 Y-494.67
G1 X689.47 Y-495.59
G1 X687.23 Y-515.57
G1 X766.96 Y-521.44
G1 X783.44 Y-492.60
G1 X786.63 Y-478.80
G1 X794.05 Y-482.19
G1 X792.95 Y-486.97
G1 X795.69 Y-485.70
G1 X799.06 Y-492.95
G1 X790.05 Y-497.16
G1 X773.58 Y-525.96
G1 X797.10 Y-588.00
G1 X799.04 Y-588.91
G1 X795.67 Y-596.17
G1 X794.96 Y-595.83
G1 X763.07 Y-631.92
G1 X781.46 Y-645.01
G1 X807.46 Y-601.65
G1 X802.92 Y-599.54
G1 X806.29 Y-592.29
G1 X813.91 Y-595.83
G1 X833.51 Y-594.36
G1 X834.11 Y-602.33
G1 X815.54 Y-603.73
G1 X787.02 Y-651.29
G1 X803.53 Y-703.45
G1 X901.52 Y-691.42
G1 X896.89 Y-663.28
G1 X865.98 Y-599.93
G1 X842.09 Y-601.73
G1 X841.49 Y-593.76
G1 X866.50 Y-591.87
G1 X877.03 Y-580.27
G1 X890.85 Y-510.35
G1 X819.18 Y-483.59
G1 X806.32 Y-489.58
G1 X802.94 Y-482.32
G1 X812.31 Y-477.96
G1 X798.44 Y-463.18
G1 X796.22 Y-472.80
G1 X788.42 Y-471.00
G1 X791.55 Y-457.46
G1 X775.22 Y-437.37
G1 X781.43 Y-432.32
G1 X796.81 Y-451.24
G1 X846.36 Y-392.81
G1 X846.00 Y-390.22
G1 X853.92 Y-389.11
G1 X854.31 Y-391.85
G1 X888.55 Y-417.31
G1 X883.78 Y-423.73
G1 X851.18 Y-399.50
G1 X802.98 Y-456.33
G1 X821.28 Y-475.83
G1 X894.97 Y-503.35
G1 X900.78 Y-499.64
G1 X918.58 Y-449.61
G1 X890.19 Y-428.50
G1 X894.97 Y-422.09
G1 X923.84 Y-443.56
G1 X943.60 Y-434.70
G1 X946.88 Y-442.00
G1 X926.53 Y-451.12
G1 X909.54 Y-498.91
G1 X949.92 Y-503.83
G1 X948.96 Y-511.77
G1 X905.03 Y-506.42
G1 X899.02 Y-510.25
G1 X885.58 Y-578.25
G1 X973.39 Y-580.46
G1 X980.41 Y-529.43
G1 X971.95 Y-514.57
G1 X956.90 Y-512.74
G1 X957.86 Y-504.80
G1 X971.45 Y-506.45
G1 X972.87 Y-501.08
G1 X980.61 Y-503.11
G1 X978.71 Y-510.29
G1 X986.67 Y-524.27
G1 X1066.37 Y-512.29
G1 X983.56 Y-491.86
G1 X982.63 Y-495.37
G1 X974.90 Y-493.34
G1 X976.60 Y-486.85
G1 X974.60 Y-474.94
G1 X982.49 Y-473.60
G1 X984.20 Y-483.78
G1 X1087.40 Y-509.24
G1 X1100.15 Y-509.14
G1 X1110.28 Y-501.63
G1 X1112.01 Y-495.91
G1 X1059.09 Y-408.09
G1 X1051.55 Y-399.72
G1 X977.38 Y-422.05
G1 X974.68 Y-427.60
G1 X981.15 Y-465.71
G1 X973.27 Y-467.05
G1 X967.44 Y-432.77
G1 X954.18 Y-438.72
G1 X950.90 Y-431.42
G1 X967.56 Y-423.95
G1 X970.17 Y-418.58
G1 X954.69 Y-380.29
G1 X892.78 Y-366.65
G1 X894.50 Y-358.84
G1 X953.41 Y-371.82
G1 X952.17 Y-340.14
G1 X943.54 Y-330.35
G1 X949.54 Y-325.06
G1 X957.49 Y-334.08
G1 X1007.37 Y-321.32
G1 X1009.35 Y-329.07
G1 X960.24 Y-341.64
G1 X961.57 Y-375.99
G1 X976.88 Y-413.84
G1 X1049.54 Y-391.97
G1 X1067.63 Y-324.88
G1 X1058.14 Y-316.59
G1 X1017.10 Y-327.09
G1 X1015.12 Y-319.34
G1 X1053.88 Y-309.42
G1 X1038.47 Y-268.16
G1 X1045.97 Y-265.37
G1 X1062.58 Y-309.85
G1 X1073.33 Y-319.24
G1 X1101.93 Y-314.25
G1 X1103.31 Y-322.13
G1 X1075.34 Y-327.01
G1 X1057.25 Y-394.10
G1 X1065.03 Y-402.73
G1 X1110.57 Y-436.81
G1 X1105.78 Y-443.22
G1 X1076.30 Y-421.16
G1 X1116.70 Y-488.18
G1 X1134.15 Y-464.46
G1 X1112.18 Y-448.01
G1 X1116.98 Y-441.60
G1 X1140.02 Y-458.86
G1 X1169.54 Y-441.93
G1 X1163.93 Y-362.59
G1 X1125.54 Y-318.24
G1 X1111.19 Y-320.76
G1 X1109.82 Y-312.87
G1 X1124.67 Y-310.28
G1 X1148.30 Y-273.53
G1 X1157.03 Y-191.50
G1 X1164.99 Y-192.34
G1 X1156.67 Y-270.44
G1 X1189.53 Y-267.30
G1 X1190.30 Y-275.26
G1 X1154.49 Y-278.69
G1 X1132.07 Y-313.56
G1 X1169.77 Y-357.12
G1 X1188.58 Y-358.57
G1 X1187.96 Y-366.55
G1 X1172.14 Y-365.33
G1 X1177.37 Y-439.32
G1 X1225.47 Y-432.56
G1 X1260.49 Y-405.79
G1 X1261.73 Y-404.19
G1 X1244.02 Y-370.88
G1 X1195.94 Y-367.16
G1 X1196.56 Y-359.19
G1 X1243.35 Y-362.80
G1 X1250.18 Y-331.61
G1 X1257.99 Y-333.33
G1 X1250.74 Y-366.47
G1 X1268.59 Y-400.04
G1 X1287.25 Y-396.03
G1 X1308.41 Y-365.33
G1 X1297.53 Y-351.94
G1 X1303.74 Y-346.89
G1 X1314.36 Y-359.96
G1 X1335.77 Y-347.56
G1 X1330.45 Y-310.24
G1 X1338.37 Y-309.10
G1 X1343.50 Y-345.05
G1 X1395.58 Y-336.42
G1 X1417.76 Y-277.56
G1 X1359.70 Y-249.07
G1 X1334.20 Y-279.97
G1 X1337.24 Y-301.18
G1 X1329.32 Y-302.32
G1 X1326.74 Y-284.34
G1 X1270.65 Y-306.19
G1 X1298.69 Y-340.68
G1 X1292.48 Y-345.73
G1 X1263.17 Y-309.68
G1 X1259.71 Y-325.51
G1 X1251.89 Y-323.80
G1 X1256.08 Y-304.69
G1 X1230.64 Y-271.40
G1 X1198.26 Y-274.50
G1 X1197.50 Y-266.53
G1 X1227.72 Y-263.64
G1 X1216.73 Y-206.33
G1 X1173.53 Y-186.23
G1 X1176.91 Y-178.97
G1 X1220.13 Y-199.09
G1 X1255.53 Y-179.71
G1 X1259.37 Y-186.74
G1 X1224.75 Y-205.68
G1 X1236.23 Y-265.53
G1 X1262.64 Y-300.10
G1 X1263.71 Y-300.31
G1 X1327.56 Y-275.43
G1 X1354.06 Y-243.35
G1 X1319.53 Y-153.83
G1 X1266.39 Y-182.90
G1 X1262.56 Y-175.88
G1 X1318.27 Y-145.40
G1 X1321.00 Y-136.49
G1 X1319.63 Y-128.86
G1 X1308.05 Y-96.19
G1 X1315.59 Y-93.52
G1 X1326.26 Y-123.62
G1 X1408.57 Y-117.63
G1 X1409.15 Y-125.61
G1 X1328.23 Y-131.49
G1 X1328.55 Y-133.28
G1 X1431.15 Y-151.31
G1 X1429.76 Y-159.19
G1 X1327.89 Y-141.29
G1 X1325.84 Y-147.98
G1 X1361.80 Y-241.19
G1 X1422.94 Y-271.19
G1 X1446.19 Y-261.74
G1 X1467.37 Y-238.22
G1 X1474.45 Y-188.54
G1 X1470.17 Y-170.12
G1 X1455.43 Y-163.70
G1 X1437.64 Y-160.57
G1 X1439.02 Y-152.70
G1 X1457.51 Y-155.94
G1 X1472.14 Y-162.25
G1 X1477.51 Y-154.20
G1 X1484.16 Y-158.64
G1 X1477.90 Y-168.03
G1 X1480.60 Y-179.67
G1 X1486.78 Y-172.33
G1 X1492.90 Y-177.48
G1 X1482.31 Y-190.06
G1 X1475.53 Y-237.64
G1 X1547.66 Y-272.02
G1 X1593.53 Y-197.51
G1 X1577.96 Y-159.04
G1 X1508.29 Y-159.20
G1 X1498.05 Y-171.36
G1 X1491.92 Y-166.21
G1 X1500.28 Y-156.30
G1 X1489.74 Y-150.29
G1 X1488.60 Y-151.99
G1 X1481.95 Y-147.55
G1 X1484.01 Y-144.46
G1 X1483.01 Y-141.74
G1 X1479.26 Y-120.51
G1 X1417.13 Y-125.03
G1 X1416.55 Y-117.05
G1 X1478.80 Y-112.53
G1 X1479.53 Y-101.43
G1 X1487.51 Y-101.96
G1 X1486.59 Y-116.04
G1 X1490.79 Y-139.79
G1 X1491.71 Y-142.20
G1 X1507.49 Y-151.20
G1 X1578.53 Y-151.03
G1 X1607.00 Y-108.76
G1 X1616.44 Y-57.49
G1 X1545.80 Y-24.85
G1 X1521.45 Y-19.61
G1 X1489.63 Y-69.90
G1 X1488.04 Y-93.98
G1 X1480.06 Y-93.45
G1 X1481.63 Y-69.62
G1 X1445.08 Y-9.71
G1 X1451.91 Y-5.54
G1 X1485.76 Y-61.04
G1 X1514.60 Y-15.48
G1 X1487.24 Y16.37
G1 X1493.31 Y21.58
G1 X1521.71 Y-11.48
G1 X1548.55 Y-17.31
G1 X1620.94 Y-50.76
G1 X1637.42 Y-43.22
G1 X1640.03 Y-41.54
G1 X1644.36 Y-48.26
G1 X1641.14 Y-50.31
G1 X1624.49 Y-57.93
G1 X1615.32 Y-107.78
G1 X1716.69 Y-147.26
G1 X1725.82 Y-152.76
G1 X1731.55 Y-145.57
G1 X1729.04 Y-142.56
G1 X1729.82 Y-138.77
G1 X1741.75 Y-132.81
G1 X1742.16 Y-132.31
G1 X1660.44 Y-37.90
G1 X1651.09 Y-43.93
G1 X1646.76 Y-37.20
G1 X1658.35 Y-29.74
G1 X1678.19 Y-0.50
G1 X1683.16 Y24.14
G1 X1691.00 Y22.56
G1 X1687.33 Y4.40
G1 X1700.51 Y9.71
G1 X1698.25 Y39.73
G1 X1694.23 Y38.59
G1 X1692.58 Y30.40
G1 X1684.74 Y31.98
G1 X1686.43 Y40.38
G1 X1625.42 Y98.07
G1 X1621.77 Y101.12
G1 X1626.89 Y107.26
G1 X1630.78 Y104.02
G1 X1691.88 Y46.24
G1 X1699.88 Y48.51
G1 X1705.65 Y53.76
G1 X1713.67 Y163.30
G1 X1721.65 Y162.71
G1 X1713.90 Y56.92
G1 X1778.60 Y71.06
G1 X1780.31 Y63.25
G1 X1711.42 Y48.19
G1 X1706.01 Y43.27
G1 X1708.52 Y9.81
G1 X1814.94 Y-35.96
G1 X1827.95 Y-17.92
G1 X1823.60 Y-12.96
G1 X1859.14 Y25.95
G1 X1860.54 Y27.93
G1 X1816.35 Y71.12
G1 X1788.13 Y64.95
G1 X1786.42 Y72.77
G1 X1814.24 Y78.85
G1 X1816.06 Y87.23
G1 X1816.95 Y184.67
G1 X1772.87 Y194.44
G1 X1774.60 Y202.25
G1 X1820.42 Y192.10
G1 X1825.12 Y194.52
G1 X1823.68 Y233.30
G1 X1831.68 Y233.59
G1 X1833.08 Y195.60
G1 X1854.88 Y192.39
G1 X1923.82 Y210.89
G1 X1948.71 Y313.22
G1 X1956.48 Y311.33
G1 X1931.64 Y209.22
G1 X1969.60 Y179.82
G1 X2042.09 Y271.94
G1 X1968.94 Y321.97
G1 X1973.46 Y328.57
G1 X2048.31 Y277.38
G1 X2049.86 Y278.97
G1 X2049.32 Y280.58
G1 X2098.29 Y330.94
G1 X2142.71 Y377.21
G1 X2118.87 Y399.23
G1 X2095.15 Y398.07
G1 X2094.76 Y406.06
G1 X2116.62 Y407.13
G1 X2117.59 Y420.79
G1 X2125.57 Y420.22
G1 X2124.48 Y404.93
G1 X2148.42 Y382.83
G1 X2153.69 Y388.04
G1 X2197.17 Y435.37
G1 X2221.51 Y472.52
G1 X2211.03 Y471.89
G1 X2210.55 Y479.88
G1 X2228.17 Y480.94
G1 X2240.82 Y487.24
G1 X2238.54 Y497.31
G1 X2246.34 Y499.07
G1 X2248.87 Y487.91
G1 X2256.65 Y484.48
G1 X2327.31 Y536.35
G1 X2317.39 Y544.63
G1 X2322.52 Y550.77
G1 X2333.85 Y541.31
G1 X2348.43 Y552.76
G1 X2368.57 Y580.34
G1 X2375.03 Y575.62
G1 X2371.36 Y570.59
G1 X2413.44 Y603.29
G1 X2414.90 Y610.40
G1 X2420.94 Y609.16
G1 X2442.17 Y626.34
G1 X2447.20 Y620.12
G1 X2426.45 Y603.17
G1 X2335.14 Y532.15
G1 X2266.02 Y481.44
G1 X2266.66 Y477.05
G1 X2262.07 Y473.41
G1 X2259.77 Y473.16
G1 X2256.80 Y474.62
G1 X2210.08 Y437.98
G1 X2197.04 Y417.23
G1 X2186.02 Y407.57
G1 X2184.02 Y409.33
G1 X2159.49 Y382.53
G1 X2147.62 Y370.82
G1 X2104.05 Y325.38
G1 X2059.42 Y279.49
G1 X2059.63 Y279.04
G1 X2056.88 Y274.71
G1 X2051.84 Y269.53
G1 X2049.30 Y266.34
G1 X2047.87 Y266.34
G1 X1975.56 Y174.45
G1 X1972.99 Y171.86
G1 X1963.27 Y159.70
G1 X1935.41 Y126.25
G1 X1929.26 Y131.37
G1 X1964.40 Y173.72
G1 X1926.26 Y203.27
G1 X1860.47 Y185.61
G1 X1896.94 Y92.57
G1 X1924.14 Y125.22
G1 X1930.29 Y120.10
G1 X1904.54 Y89.19
G1 X1907.63 Y85.39
G1 X1907.97 Y83.29
G1 X1906.40 Y79.32
G1 X1896.55 Y66.33
G1 X1890.27 Y71.29
G1 X1894.55 Y76.80
G1 X1852.24 Y184.70
G1 X1829.90 Y187.99
G1 X1824.95 Y185.43
G1 X1824.05 Y86.54
G1 X1821.98 Y76.80
G1 X1865.07 Y34.68
G1 X1866.25 Y36.50
G1 X1872.96 Y32.14
G1 X1865.30 Y20.83
G1 X1846.74 Y0.51
G1 X1849.26 Y-2.04
G1 X1820.68 Y-41.87
G1 X1816.13 Y-47.80
G1 X1813.22 Y-49.69
G1 X1785.93 Y-85.30
G1 X1779.58 Y-80.43
G1 X1807.58 Y-43.90
G1 X1809.77 Y-42.44
G1 X1704.67 Y2.76
G1 X1684.58 Y-5.34
G1 X1666.23 Y-32.37
G1 X1746.17 Y-124.71
G1 X1746.60 Y-123.46
G1 X1774.71 Y-86.78
G1 X1781.06 Y-91.65
G1 X1754.00 Y-126.95
G1 X1753.76 Y-129.78
G1 X1753.39 Y-130.79
G1 X1749.54 Y-136.17
G1 X1747.03 Y-139.06
G1 X1739.66 Y-142.80
G1 X1740.43 Y-143.71
G1 X1740.71 Y-146.06
G1 X1739.70 Y-148.12
G1 X1729.17 Y-161.66
G1 X1726.75 Y-164.48
G1 X1725.47 Y-165.21
G1 X1724.10 Y-165.42
G1 X1712.22 Y-169.52
G1 X1692.05 Y-192.92
G1 X1685.99 Y-187.70
G1 X1707.21 Y-163.08
G1 X1708.09 Y-162.48
G1 X1719.77 Y-158.45
G1 X1713.30 Y-154.53
G1 X1612.31 Y-115.19
G1 X1585.16 Y-155.50
G1 X1601.26 Y-195.28
G1 X1657.92 Y-234.65
G1 X1658.17 Y-234.34
G1 X1658.96 Y-219.72
G1 X1659.46 Y-218.49
G1 X1680.77 Y-193.76
G1 X1686.83 Y-198.98
G1 X1666.84 Y-222.17
G1 X1666.05 Y-236.70
G1 X1665.60 Y-237.88
G1 X1662.87 Y-241.36
G1 X1657.79 Y-247.10
G1 X1656.81 Y-247.71
G1 X1650.18 Y-249.55
G1 X1619.39 Y-282.71
G1 X1613.53 Y-277.27
G1 X1645.47 Y-242.87
G1 X1646.42 Y-242.29
G1 X1652.48 Y-240.61
G1 X1599.19 Y-203.58
G1 X1553.65 Y-277.55
G1 X1573.56 Y-326.83
G1 X1575.69 Y-318.38
G1 X1576.17 Y-317.50
G1 X1608.08 Y-283.13
G1 X1613.94 Y-288.58
G1 X1583.08 Y-321.82
G1 X1580.70 Y-331.24
G1 X1580.26 Y-332.08
G1 X1574.03 Y-339.18
G1 X1571.97 Y-341.14
G1 X1566.24 Y-335.56
G1 X1567.81 Y-333.94
G1 X1546.06 Y-280.11
G1 X1472.13 Y-244.88
G1 X1453.93 Y-265.10
G1 X1539.94 Y-360.63
G1 X1540.47 Y-361.86
G1 X1560.66 Y-341.29
G1 X1566.39 Y-346.87
G1 X1542.46 Y-371.23
G1 X1539.15 Y-375.07
G1 X1536.02 Y-379.57
G1 X1534.77 Y-380.40
G1 X1533.92 Y-380.59
G1 X1532.35 Y-382.05
G1 X1529.86 Y-399.54
G1 X1528.04 Y-405.63
G1 X1524.59 Y-407.08
G1 X1523.83 Y-406.69
G1 X1497.91 Y-433.71
G1 X1493.97 Y-435.38
G1 X1491.19 Y-427.88
G1 X1493.08 Y-427.18
G1 X1521.04 Y-398.04
G1 X1522.01 Y-397.88
G1 X1524.25 Y-382.07
G1 X1468.03 Y-382.00
G1 X1468.04 Y-374.00
G1 X1528.97 Y-374.08
G1 X1530.79 Y-373.08
G1 X1533.63 Y-369.27
G1 X1532.84 Y-364.71
G1 X1447.46 Y-269.87
G1 X1425.91 Y-278.62
G1 X1403.08 Y-339.22
G1 X1432.07 Y-373.95
G1 X1460.04 Y-373.99
G1 X1460.03 Y-381.99
G1 X1434.12 Y-381.95
G1 X1433.36 Y-424.28
G1 X1457.31 Y-441.89
G1 X1459.91 Y-439.61
G1 X1483.69 Y-430.67
G1 X1486.47 Y-438.17
G1 X1463.88 Y-446.67
G1 X1459.38 Y-451.00
G1 X1453.15 Y-456.33
G1 X1452.20 Y-460.48
G1 X1451.49 Y-461.62
G1 X1416.80 Y-489.69
G1 X1411.77 Y-483.47
G1 X1444.86 Y-456.70
G1 X1445.76 Y-452.71
G1 X1446.39 Y-451.64
G1 X1451.23 Y-447.35
G1 X1429.17 Y-431.13
G1 X1398.73 Y-450.56
G1 X1394.43 Y-443.82
G1 X1425.36 Y-424.07
G1 X1426.17 Y-379.37
G1 X1396.91 Y-344.31
G1 X1341.48 Y-353.50
G1 X1316.19 Y-368.14
G1 X1294.71 Y-399.30
G1 X1329.51 Y-438.53
G1 X1323.53 Y-443.84
G1 X1288.20 Y-404.01
G1 X1268.70 Y-408.25
G1 X1351.50 Y-487.63
G1 X1351.30 Y-475.13
G1 X1328.84 Y-449.83
G1 X1334.82 Y-444.52
G1 X1356.00 Y-468.38
G1 X1387.68 Y-448.13
G1 X1391.99 Y-454.87
G1 X1359.31 Y-475.75
G1 X1359.66 Y-496.71
G1 X1364.23 Y-518.48
G1 X1366.65 Y-516.27
G1 X1367.87 Y-515.74
G1 X1372.35 Y-515.37
G1 X1405.55 Y-488.50
G1 X1410.58 Y-494.72
G1 X1375.95 Y-522.74
G1 X1374.83 Y-523.19
G1 X1370.55 Y-523.55
G1 X1362.73 Y-530.68
G1 X1362.43 Y-530.58
G1 X1358.56 Y-533.32
G1 X1348.10 Y-546.73
G1 X1341.79 Y-541.82
G1 X1352.79 Y-527.71
G1 X1357.30 Y-524.41
G1 X1352.00 Y-499.19
G1 X1263.04 Y-413.91
G1 X1231.48 Y-438.04
G1 X1247.46 Y-518.65
G1 X1239.61 Y-520.20
G1 X1223.88 Y-440.86
G1 X1175.25 Y-447.69
G1 X1142.45 Y-466.69
G1 X1119.99 Y-497.20
G1 X1117.90 Y-504.07
G1 X1123.29 Y-522.18
G1 X1157.01 Y-536.36
G1 X1237.01 Y-590.84
G1 X1251.87 Y-597.91
G1 X1254.69 Y-596.20
G1 X1241.16 Y-528.05
G1 X1249.01 Y-526.50
G1 X1262.14 Y-592.64
G1 X1262.90 Y-592.36
G1 X1268.55 Y-592.02
G1 X1284.33 Y-589.51
G1 X1285.24 Y-587.20
G1 X1326.49 Y-561.45
G1 X1336.87 Y-548.13
G1 X1343.18 Y-553.04
G1 X1331.63 Y-567.67
G1 X1293.14 Y-591.70
G1 X1293.62 Y-593.40
G1 X1291.72 Y-596.41
G1 X1269.52 Y-599.97
G1 X1265.65 Y-600.21
G1 X1254.73 Y-607.43
G1 X1249.47 Y-611.54
G1 X1242.84 Y-621.26
G1 X1209.99 Y-641.31
G1 X1205.82 Y-634.48
G1 X1237.58 Y-615.10
G1 X1242.14 Y-608.32
G1 X1242.95 Y-606.59
G1 X1232.59 Y-597.50
G1 X1153.00 Y-543.31
G1 X1120.56 Y-529.71
G1 X1115.89 Y-533.20
G1 X1083.82 Y-624.66
G1 X1103.97 Y-650.03
G1 X1149.66 Y-663.62
G1 X1153.64 Y-661.21
G1 X1167.06 Y-658.14
G1 X1199.00 Y-638.65
G1 X1203.16 Y-645.48
G1 X1170.40 Y-665.48
G1 X1156.44 Y-668.77
G1 X1154.53 Y-670.24
G1 X1147.67 Y-673.92
G1 X1146.92 Y-676.16
G1 X1145.97 Y-677.30
G1 X1130.30 Y-686.13
G1 X1126.37 Y-679.16
G1 X1140.05 Y-671.45
G1 X1140.77 Y-669.32
G1 X1104.82 Y-658.62
G1 X1102.36 Y-673.47
G1 X1094.47 Y-672.16
G1 X1097.38 Y-654.59
G1 X1077.43 Y-629.49
G1 X1030.10 Y-631.11
