;FLAVOR:Marlin

T0
M82 ;absolute extrusion mode
G21 ;metric values
G28 ;home all
G90 ;absolute positioning
M107 ;start with the fan off
G1 F2400 Z15.0 ;raise the nozzle 15mm
M109 S205.0 ;Set Extruder Temperature and Wait
M190 S60.0 ;Wait for bed temperature to reach target temp
T0 ;Switch to Extruder 1
G1 F3000 X5 Y10 Z0.2 ;move to prime start position
G92 E0 ;reset extrusion distance
G1 F600 X160 E15 ;prime nozzle in a line
G1 F5000 X180 ;quick wipe
G92 E0 ;reset extrusion distance
G92 E0

T0 ;switch to extruder 1
G92 E0 ;reset extruder distance
G1 F2000 E93 ;load filament
G92 E0 ;reset extruder distance
M104 S205.0
G92 E0
M107
G0 F5700 X504.38 Y-749.99 Z350.00
G0 F1800 X504.38 Y-749.99 Z-50.00
G1 X504.38 Y-749.99 Z-50.00 E0
G1 X462.37 Y-776.44 E259.357350756
G1 X458.10 Y-769.68 E301.152994484
G1 X516.67 Y-732.80 E662.759922294
G1 X510.28 Y-701.24 E830.961147236
G1 X518.12 Y-699.66 E872.756767222
G1 X524.48 Y-731.10 E1040.38085259
G1 X565.97 Y-736.31 E1258.82437804
G1 X583.54 Y-720.47 E1382.39778672
G1 X593.60 Y-651.24 E1747.87947766
G1 X562.12 Y-624.21 E1964.61832566
G1 X514.34 Y-642.04 E2231.06957952
G1 X509.79 Y-658.49 E2320.22018558
G1 X516.53 Y-691.82 E2497.88122565
G1 X508.69 Y-693.40 E2539.67686215
G1 X501.98 Y-660.24 E2716.42284682
G1 X492.61 Y-650.18 E2788.26890097
G1 X425.73 Y-667.49 E3149.18526977
G1 X423.72 Y-659.75 E3190.98111218
G1 X491.68 Y-642.16 E3557.73412154
G1 X494.55 Y-638.78 E3580.88622752
G1 X480.80 Y-625.89 E3679.35650381
G1 X486.27 Y-620.05 E3721.15247064
G1 X501.74 Y-634.55 E3831.92520984
G1 X510.40 Y-634.97 E3877.22255768
G1 X559.05 Y-616.82 E4148.51251961
G1 X560.42 Y-584.37 E4318.22709515
G1 X556.71 Y-575.38 E4369.02434613
G1 X564.11 Y-572.33 E4410.81998899
G1 X565.72 Y-576.22 E4432.81353207
G1 X579.89 Y-560.26 E4544.32961208
G1 X585.87 Y-565.57 E4586.12525006
G1 X568.39 Y-585.25 E4723.63319558
G1 X567.01 Y-617.87 E4894.18636901
G1 X599.02 Y-645.35 E5114.59160894
G1 X622.09 Y-640.99 E5237.24521090
G1 X623.57 Y-648.85 E5279.04114405
G1 X601.42 Y-653.04 E5396.82797039
G1 X591.76 Y-719.52 E5747.79749308
G1 X687.03 Y-744.54 E6262.38940248
G1 X660.60 Y-641.85 E6816.40905823
G1 X631.43 Y-647.36 E6971.49550388
G1 X629.95 Y-639.50 E7013.29139253
G1 X660.87 Y-633.66 E7177.71003429
G1 X669.95 Y-646.07 E7258.06275408
G1 X695.76 Y-746.38 E7799.19021005
G1 X703.37 Y-742.57 E7843.66712161
G1 X710.18 Y-687.66 E8132.72703083
G1 X718.12 Y-688.64 E8174.52278535
G1 X711.60 Y-741.17 E8451.08161412
G1 X763.45 Y-740.98 E8721.97686110
G1 X786.42 Y-731.14 E8852.56150982
G1 X796.46 Y-707.62 E8986.16503387
G1 X779.26 Y-653.25 E9284.07804383
G1 X756.11 Y-636.78 E9432.50802118
G1 X723.99 Y-641.32 E9601.99542587
G1 X719.11 Y-680.70 E9809.32609155
G1 X711.17 Y-679.72 E9851.12188600
G1 X716.03 Y-640.47 E10057.7291888
G1 X684.35 Y-629.12 E10233.5571825
G1 X672.10 Y-636.66 E10308.6739940
G1 X667.91 Y-629.84 E10350.4701993
G1 X679.64 Y-622.63 E10422.4066168
G1 X673.12 Y-561.16 E10745.3516120
G1 X681.08 Y-560.32 E10787.1476775
G1 X687.60 Y-621.79 E11110.1200364
G1 X720.82 Y-633.69 E11294.4627541
G1 X755.11 Y-628.84 E11475.4226599
G1 X789.34 Y-590.11 E11745.4682955
G1 X766.34 Y-529.41 E12084.5676321
G1 X684.76 Y-523.41 E12511.9155127
G1 X677.92 Y-530.54 E12563.5644649
G1 X680.23 Y-552.36 E12678.1997753
G1 X672.28 Y-553.20 E12719.9959112
G1 X670.14 Y-533.13 E12825.4864928
G1 X633.71 Y-533.29 E13015.8473228
G1 X633.68 Y-525.29 E13057.6430765
G1 X672.03 Y-525.12 E13258.0350252
G1 X679.20 Y-517.65 E13312.1327399
G1 X679.23 Y-515.60 E13322.8291129
G1 X672.22 Y-502.14 E13402.0965091
G1 X679.31 Y-498.45 E13443.8923228
G1 X680.76 Y-501.23 E13460.2958847
G1 X681.52 Y-494.67 E13494.7830607
G1 X689.47 Y-495.59 E13536.5789718
G1 X687.23 Y-515.57 E13641.6080808
G1 X766.96 Y-521.44 E14059.2726646
G1 X783.44 Y-492.60 E14232.8133009
G1 X786.63 Y-478.80 E14306.8157896
G1 X794.05 Y-482.19 E14349.4816607
G1 X792.95 Y-486.97 E14375.1203559
G1 X795.69 Y-485.70 E14390.8892602
G1 X799.06 Y-492.95 E14432.6852269
G1 X790.05 Y-497.16 E14484.6660590
G1 X773.58 Y-525.96 E14657.9921366
G1 X797.10 Y-588.00 E15004.6364637
G1 X799.04 Y-588.91 E15015.8337948
G1 X795.67 Y-596.17 E15057.6297374
G1 X794.96 Y-595.83 E15061.7591458
G1 X763.07 Y-631.92 E15313.3316665
G1 X763.07 Y-631.92 Z350.00
M140 S0
M107
M104 S0  ;hotend off
M140 S0  ;bed off
G92 E0
G1 F2000 E-100  ;retract filament 100mm
G92 E0
G1 F3000 X0 Y270  ;move bed for easy part removal
M84  ;disable steppers
M82 ;absolute extrusion mode
M104 S0
;End of Gcode
