;FLAVOR:Marlin

T0
M82 ;absolute extrusion mode
G21 ;metric values
G28 ;home all
G90 ;absolute positioning
M107 ;start with the fan off
G1 F2400 Z15.0 ;raise the nozzle 15mm
M109 S205.0 ;Set Extruder Temperature and Wait
M190 S60.0 ;Wait for bed temperature to reach target temp
T0 ;Switch to Extruder 1
G1 F3000 X5 Y10 Z0.2 ;move to prime start position
G92 E0 ;reset extrusion distance
G1 F600 X160 E15 ;prime nozzle in a line
G1 F5000 X180 ;quick wipe
G92 E0 ;reset extrusion distance
G92 E0

T0 ;switch to extruder 1
G92 E0 ;reset extruder distance
G1 F2000 E93 ;load filament
G92 E0 ;reset extruder distance
M104 S205.0
G92 E0
M107
G0 F5700 X264.09 Y14.23 Z-345.50
G0 F1800 X264.09 Y14.23 Z-745.50
G1 X264.09 Y14.23 Z-745.50 E0
G1 X265.09 Y11.00 E3.97182996570
G1 X345.60 Y11.00 E98.6091198284
G1 X350.37 Y19.35 E109.917210063
G1 X311.13 Y63.05 E178.961009323
G1 X270.86 Y47.68 E229.624475950
G1 X260.55 Y25.62 E258.256000583
G1 X262.68 Y18.77 E266.684682354
G1 X263.88 Y14.16 Z-736.50 E278.655281702
G1 X264.86 Y11.00 E282.544793351
G1 X347.48 Y11.00 E379.662805070
G1 X351.55 Y20.13 E391.417907110
G1 X311.78 Y64.42 E461.394951675
G1 X270.36 Y48.62 E513.509076479
G1 X260.03 Y26.53 E542.163950895
G1 X262.17 Y19.66 E550.621343773
G1 X263.66 Y14.10 Z-727.50 E563.185208284
G1 X264.63 Y11.00 E566.995366386
G1 X274.54 Y9.87 E578.724831746
G1 X350.37 Y9.87 E667.862041110
G1 X354.44 Y19.00 E679.617143151
G1 X312.42 Y65.80 E753.548692326
G1 X269.85 Y49.55 E807.113559134
G1 X259.52 Y27.45 E835.791676841
G1 X261.92 Y19.71 E845.311412965
G1 X228.45 Y-1.51 Z-718.50 E893.085197368
G1 X235.40 Y-1.51 E901.256519551
G1 X274.17 Y9.91 E948.763903750
G1 X280.88 Y7.94 E956.986877996
G1 X353.98 Y7.94 E1042.90846603
G1 X358.05 Y17.08 E1054.66356807
G1 X313.07 Y67.17 E1133.80732212
G1 X269.34 Y50.48 E1188.82299884
G1 X259.00 Y28.36 E1217.52431006
G1 X260.43 Y23.76 E1223.18545675
G1 X226.33 Y8.26 E1267.21388641
G1 X227.60 Y2.42 E1274.24215608
G1 X200.55 Y-2.26 Z-709.50 E1308.19740203
G1 X204.63 Y-6.68 E1315.26439100
G1 X233.32 Y-6.68 E1348.99459835
G1 X236.48 Y-2.41 E1355.24221832
G1 X273.87 Y9.93 E1401.51966068
G1 X287.23 Y6.02 E1417.88417132
G1 X357.58 Y6.02 E1500.59053211
G1 X361.66 Y15.15 E1512.34563415
G1 X313.71 Y68.54 E1596.70173089
G1 X268.83 Y51.42 E1653.16841118
G1 X258.48 Y29.28 E1681.89259644
G1 X260.16 Y23.89 E1688.52846873
G1 X222.64 Y7.43 E1736.68974062
G1 X198.55 Y-2.90 Z-700.50 E1769.26593177
G1 X206.79 Y-11.85 E1783.56378646
G1 X229.27 Y-11.85 E1809.98525911
G1 X236.33 Y-2.29 E1823.95587939
G1 X273.51 Y9.97 E1869.96950106
G1 X293.57 Y4.09 E1894.54067919
G1 X361.19 Y4.09 E1974.03141920
G1 X365.26 Y13.22 E1985.78652124
G1 X314.35 Y69.92 E2075.35482342
G1 X268.32 Y52.35 E2133.27209398
G1 X257.97 Y30.19 E2162.01989178
G1 X259.86 Y24.10 E2169.52248754
G1 X232.94 Y13.14 E2203.68838522
G1 X211.72 Y3.24 E2231.21954696
G1 X199.18 Y-3.33 Z-691.50 E2250.93308552
G1 X201.73 Y-9.17 E2258.41953061
G1 X208.96 Y-17.02 E2270.95756826
G1 X225.22 Y-17.02 E2290.07054133
G1 X236.15 Y-2.22 E2311.69752292
G1 X273.20 Y9.99 E2357.55102624
G1 X299.91 Y2.17 E2390.26887677
G1 X364.46 Y2.56 E2466.15188641
G1 X368.51 Y11.70 E2477.90698846
G1 X315.00 Y71.29 E2572.04958609
G1 X267.82 Y53.28 E2631.41744691
G1 X257.45 Y31.11 E2660.18843823
G1 X259.59 Y24.22 E2668.66269254
G1 X233.74 Y14.63 E2701.07256555
G1 X216.82 Y7.19 E2722.80670602
G1 X206.71 Y1.15 E2736.64656046
G1 X200.54 Y-3.33 Z-682.50 E2750.51384042
G1 X206.64 Y-17.32 E2768.44545706
G1 X211.12 Y-22.18 E2776.22488957
G1 X221.16 Y-22.18 E2788.02924549
G1 X236.09 Y-1.99 E2817.54220726
G1 X272.72 Y10.06 E2862.87606928
G1 X306.25 Y0.24 E2903.94968175
G1 X376.00 Y0.24 E2985.93411277
G1 X378.53 Y2.63 E2990.03065042
G1 X316.35 Y71.88 E3099.44052907
G1 X267.31 Y54.21 E3160.71284637
G1 X256.93 Y32.02 E3189.50697449
G1 X259.23 Y24.62 E3198.61869567
G1 X234.56 Y16.14 E3229.28593092
G1 X213.34 Y3.99 E3258.02829577
G1 X201.89 Y-3.33 Z-673.50 E3277.18974060
G1 X213.29 Y-27.35 E3308.43683636
G1 X217.11 Y-27.35 E3312.93269268
G1 X235.54 Y-2.42 E3349.37644757
G1 X272.95 Y9.93 E3395.68335958
G1 X312.60 Y-1.69 E3444.24679626
G1 X375.83 Y-1.69 E3518.58241749
G1 X380.41 Y2.63 E3525.97851519
G1 X318.15 Y71.96 E3635.51059667
G1 X268.12 Y55.65 E3697.36671326
G1 X257.82 Y28.43 E3731.58681810
G1 X259.24 Y23.86 E3737.20307925
G1 X238.23 Y17.34 E3763.06426730
G1 X214.35 Y3.75 E3795.35944980
G1 X89.19 Y-0.16 Z-664.50 E3942.93009968
G1 X150.10 Y-3.55 E4014.64177677
G1 X173.25 Y11.00 E4046.78205865
G1 X184.33 Y11.00 E4059.81000314
G1 X194.38 Y16.99 E4073.56589642
G1 X214.50 Y-29.12 E4132.70330895
G1 X234.42 Y-3.62 E4170.73544508
G1 X273.98 Y9.56 E4219.75159209
G1 X318.94 Y-3.61 E4274.82529072
G1 X375.67 Y-3.61 E4341.51221970
G1 X382.29 Y2.63 E4352.20771612
G1 X319.96 Y72.04 E4461.86207898
G1 X318.27 Y71.49 E4463.94775244
G1 X311.51 Y92.43 E4489.80894337
G1 X314.26 Y93.32 E4493.20964813
G1 X312.27 Y106.89 E4509.33896640
G1 X302.72 Y109.86 E4521.09406844
G1 X289.33 Y95.43 E4544.23253812
G1 X290.58 Y85.66 E4555.80551721
G1 X297.34 Y64.73 E4581.66676846
G1 X273.30 Y56.96 E4611.36359774
G1 X259.82 Y21.35 E4656.13176022
G1 X226.40 Y7.11 E4698.83578899
G1 X216.59 Y23.37 E4721.15794210
G1 X45.64 Y10.06 E4922.72112414
G1 X40.03 Y2.59 E4933.70533631
G1 X52.18 Y1.91 E4948.00470405
G1 X88.96 Y-4.30 Z-655.50 E4993.11566099
G1 X145.28 Y-7.44 E5059.41407801
G1 X174.61 Y11.00 E5100.14146522
G1 X185.69 Y11.00 E5113.16964481
G1 X194.41 Y16.20 E5125.10645297
G1 X205.68 Y-2.69 E5150.96768526
G1 X204.61 Y-3.33 E5152.43833211
G1 X215.66 Y-28.68 E5184.94781267
G1 X233.69 Y-4.30 E5220.58826559
G1 X274.40 Y9.37 E5271.07131743
G1 X325.28 Y-5.54 E5333.39965650
G1 X375.51 Y-5.54 E5392.43777569
G1 X384.17 Y2.63 E5406.43267083
G1 X321.77 Y72.11 E5516.20939360
G1 X314.21 Y69.67 E5525.54353182
G1 X307.45 Y90.61 E5551.40480396
G1 X315.41 Y93.18 E5561.23178444
G1 X316.55 Y100.60 E5570.05460258
G1 X312.57 Y127.72 E5602.28503140
G1 X303.02 Y130.69 E5614.04013344
G1 X262.94 Y87.51 E5683.29244490
G1 X263.61 Y77.42 E5695.18068403
G1 X286.52 Y83.85 E5723.14966528
G1 X293.28 Y62.91 E5749.01096269
G1 X278.41 Y58.11 E5767.37663604
G1 X263.96 Y19.93 E5815.36650310
G1 X238.32 Y12.63 E5846.70509676
G1 X236.41 Y15.64 E5850.89149651
G1 X224.57 Y8.58 E5867.09059683
G1 X213.30 Y27.47 E5892.95186162
G1 X194.08 Y27.34 E5915.55075538
G1 X33.07 Y15.06 E6105.37046916
G1 X30.64 Y8.97 E6113.07604131
G1 X44.84 Y-1.84 E6134.05088856
G1 X49.77 Y-2.11 E6139.85678936
G1 X88.73 Y-8.45 Z-646.50 E6187.44934935
G1 X140.45 Y-11.33 E6248.33455126
G1 X175.96 Y11.00 E6297.64924283
G1 X187.04 Y11.00 E6310.67742242
G1 X200.72 Y19.16 E6329.39663687
G1 X211.99 Y0.26 E6355.25789294
G1 X205.96 Y-3.33 E6363.51094321
G1 X216.26 Y-26.94 E6393.78548384
G1 X233.12 Y-4.75 E6426.55275272
G1 X274.52 Y9.26 E6477.92900905
G1 X331.63 Y-7.46 E6547.87263779
G1 X375.34 Y-7.46 E6599.26218228
G1 X386.04 Y2.63 E6616.55638580
G1 X323.58 Y72.19 E6726.45538994
G1 X316.09 Y69.77 E6735.71075708
G1 X309.32 Y90.71 E6761.57202539
G1 X315.35 Y92.65 E6769.01366766
G1 X318.29 Y111.66 E6791.62362875
G1 X312.87 Y148.55 E6835.45791804
G1 X303.32 Y151.52 E6847.21302008
G1 X260.34 Y105.22 E6921.47160867
G1 X262.15 Y77.97 E6953.57521691
G1 X272.90 Y78.94 E6966.26406662
G1 X288.39 Y83.94 E6985.40239191
G1 X295.15 Y63.01 E7011.26371063
G1 X283.52 Y59.25 E7025.62579947
G1 X267.69 Y17.42 E7078.20160495
G1 X237.30 Y10.22 E7114.91609819
G1 X234.93 Y13.95 E7120.11552352
G1 X234.93 Y13.95 Z-246.50
M140 S0
M107
M104 S0  ;hotend off
M140 S0  ;bed off
G92 E0
G1 F2000 E-100  ;retract filament 100mm
G92 E0
G1 F3000 X0 Y270  ;move bed for easy part removal
M84  ;disable steppers
M82 ;absolute extrusion mode
M104 S0
;End of Gcode
